X:150
T:Love in a Village
M:2/4
L:1/8
B:Thompson's Compleat Collection of 200 Favourite Country Dances, vol. 2 (London, 1765)
Z:Transcribed and edited by Flynn Titford-Mock, 2007
Z:abc's:AK/Fiddler's Companion
K:G>AB>c | d B2 e | dBAG | F D2 F | GABc | d B2 {cd}e | dcBA | {A}G4 :|
|: G>AB>c | (d<B)(g<d) | (e<c)(c'<c) | (d<B)(b<B) | G>AB>c | (dB)(ge) | bdcB | "tr"B2 A2 |
G>AB>c | d B2 e | dBAG | F D2 F | GABc | d B2 {cd}e | dcBA | {A}G4 :|

